public/images/farms/usdt-bnb.svg

<svg width="186" height="171" viewBox="0 0 186 171" fill="none" xmlns="http://www.w3.org/2000/svg">
<path d="M67.045 119.028C63.8667 131.172 82.0449 146.449 107.647 153.149C133.25 159.849 156.581 155.436 159.759 143.291C162.937 131.146 144.759 115.87 119.157 109.169C93.5546 102.469 70.2233 106.883 67.045 119.028Z" fill="#606063"/>
<path d="M155.924 149.273L171.346 132.988L61.9922 104.369L67.7128 126.187L155.924 149.273Z" fill="#606063"/>
<path d="M68.9337 108.293L27.0725 97.338C25.258 96.8632 23.4126 97.9924 23.0096 99.8242L22.5414 101.953C21.6084 106.194 24.1195 110.433 28.2875 111.653L70.0994 123.892L68.9337 108.293Z" fill="#606063"/>
<path d="M62.2026 98.7096C58.5089 112.824 80.5267 130.811 111.381 138.886C142.235 146.96 170.241 142.064 173.935 127.95C177.629 113.836 155.611 95.8488 124.757 87.7742C93.9028 79.6996 65.8963 84.5955 62.2026 98.7096Z" fill="url(#paint0_linear)"/>
<path fill-rule="evenodd" clip-rule="evenodd" d="M146.673 123.286C153.771 128.506 157.919 134.152 158.538 139.157L161.516 138.789C160.744 132.551 155.779 126.258 148.45 120.869C141.061 115.434 131.011 110.721 119.537 107.718C108.063 104.716 96.9927 103.901 87.888 105.019C78.8593 106.128 71.4479 109.182 67.7196 114.242L70.1348 116.021C73.1263 111.961 79.5082 109.071 88.2536 107.997C96.9231 106.933 107.608 107.698 118.777 110.621C129.946 113.544 139.636 118.111 146.673 123.286Z" fill="#606063"/>
<path fill-rule="evenodd" clip-rule="evenodd" d="M75.7343 118.739C67.0136 111.615 63.7365 104.698 65.1049 99.4692C66.4733 94.2403 72.7186 89.8155 83.8112 87.8763C94.6178 85.9872 108.889 86.7226 123.997 90.6764C139.105 94.6302 151.908 100.98 160.403 107.921C169.124 115.045 172.401 121.962 171.033 127.191C169.664 132.42 163.419 136.844 152.326 138.784C141.52 140.673 127.248 139.937 112.14 135.984C97.0323 132.03 84.2301 125.68 75.7343 118.739ZM111.381 138.886C80.5267 130.811 58.5089 112.824 62.2026 98.7096C65.8963 84.5955 93.9028 79.6996 124.757 87.7742C155.611 95.8488 177.629 113.836 173.935 127.95C170.241 142.064 142.235 146.96 111.381 138.886Z" fill="#979797"/>
<path fill-rule="evenodd" clip-rule="evenodd" d="M64.1673 124.049L59.2305 104.926L62.1352 104.176L67.0721 123.299L64.1673 124.049Z" fill="url(#paint1_linear)"/>
<path fill-rule="evenodd" clip-rule="evenodd" d="M62.4691 106.189C62.4241 106.041 62.3812 105.893 62.3406 105.746C62.2656 105.473 62.1983 105.2 62.1386 104.929L61.997 104.389C61.9948 104.38 62.0025 104.372 62.0109 104.375C62.019 104.377 62.0266 104.37 62.0251 104.362C62.0236 104.353 62.0222 104.345 62.0207 104.337C61.9732 104.072 61.9333 103.807 61.9009 103.543C61.8931 103.479 61.8857 103.416 61.8788 103.352C61.8065 102.689 61.7824 102.031 61.8078 101.378C61.8079 101.378 61.8079 101.378 61.8079 101.377C61.8432 100.475 61.9734 99.5849 62.2025 98.7095C65.8962 84.5954 93.9027 79.6994 124.757 87.774C155.611 95.8486 177.629 113.836 173.935 127.95C173.706 128.826 173.383 129.666 172.972 130.469C172.972 130.469 172.972 130.47 172.972 130.47C172.528 131.338 171.981 132.163 171.337 132.945C171.332 132.951 171.326 132.958 171.321 132.964C171.319 132.967 171.318 132.969 171.318 132.972C171.318 132.977 171.322 132.982 171.327 132.983C171.332 132.984 171.335 132.989 171.336 132.993C171.336 132.996 171.335 133 171.333 133.002L170.725 133.644C170.655 133.72 170.584 133.795 170.511 133.87L169.275 135.175L169.273 135.177L157.793 147.299C150.986 156.33 130.197 159.051 107.647 153.149C85.3446 147.312 68.6757 134.967 66.8505 123.854C66.7571 123.285 66.3667 122.8 65.8135 122.639L29.1271 111.91C24.9834 110.698 22.4722 106.499 23.3648 102.275L23.8239 100.103C24.2137 98.2581 26.0655 97.1133 27.8898 97.589L62.1386 106.52C62.3391 106.573 62.5217 106.39 62.4691 106.189ZM58.8119 102.553C58.7482 101.009 58.9029 99.4681 59.3002 97.9499C61.6255 89.0648 71.2303 83.9845 82.7779 81.9658C94.6114 79.8971 109.77 80.751 125.516 84.8718C141.262 88.9926 154.896 95.6738 164.199 103.274C173.277 110.691 179.162 119.825 176.837 128.71C176.28 130.839 175.285 132.774 173.936 134.499C173.821 134.697 173.679 134.887 173.511 135.065L172.923 135.686C172.92 135.689 172.916 135.693 172.913 135.697C172.836 135.779 172.759 135.861 172.68 135.943C172.677 135.946 172.673 135.95 172.67 135.953L160.082 149.246C155.911 154.652 148.056 157.706 138.984 158.802C129.684 159.926 118.467 159.082 106.888 156.051C95.4351 153.054 85.3397 148.366 77.8095 142.91C70.73 137.78 65.4882 131.648 64.0667 125.253L28.285 114.789C22.6362 113.137 19.2128 107.413 20.4296 101.655L20.8887 99.4823C21.6325 95.9628 25.166 93.7783 28.6468 94.6861L58.8119 102.553Z" fill="url(#paint2_linear)"/>
<circle cx="76" cy="29" r="29" fill="#F0B90B"/>
<path d="M65.1846 28.9998L60.7476 33.4676L56.2798 28.9998L60.7476 24.532L65.1846 28.9998ZM75.9998 18.1846L83.6413 25.8261L88.1091 21.3583L80.4676 13.7476L75.9998 9.27979L71.532 13.7476L63.9213 21.3583L68.3891 25.8261L75.9998 18.1846ZM91.252 24.532L86.815 28.9998L91.2828 33.4676L95.7198 28.9998L91.252 24.532ZM75.9998 39.815L68.3583 32.1735L63.9213 36.6413L71.5628 44.2828L75.9998 48.7198L80.4676 44.252L88.1091 36.6105L83.6413 32.1735L75.9998 39.815ZM75.9998 33.4676L80.4676 28.9998L75.9998 24.532L71.532 28.9998L75.9998 33.4676Z" fill="#FFFDFA"/>
<g style="mix-blend-mode:multiply" opacity="0.1">
<circle cx="76" cy="29" r="27.5" stroke="#191326" stroke-width="3"/>
</g>
<path d="M125.5 116C149.524 116 169 96.5244 169 72.5C169 48.4756 149.524 29 125.5 29C101.476 29 82 48.4756 82 72.5C82 96.5244 101.476 116 125.5 116Z" fill="#24A980"/>
<path d="M130.9 76.836C130.62 76.836 129.011 76.9759 125.585 76.9759C122.787 76.9759 120.899 76.906 120.199 76.836C109.639 76.4164 101.666 74.5281 101.666 72.3601C101.666 70.1222 109.569 68.3039 120.199 67.8143V75.0177C120.899 75.0876 122.857 75.1576 125.654 75.1576C128.941 75.1576 130.62 75.0177 130.9 75.0177V67.8143C141.53 68.3039 149.433 70.1222 149.433 72.3601C149.433 74.5281 141.53 76.4164 130.9 76.836ZM130.9 67.045V60.6109H145.726V50.75H105.443V60.6109H120.269V67.045C108.24 67.6045 99.2188 69.9823 99.2188 72.8497C99.2188 75.717 108.24 78.0949 120.269 78.6543V99.3553H130.97V78.6543C142.998 78.0949 152.02 75.717 152.02 72.8497C151.95 69.9823 142.929 67.6045 130.9 67.045Z" fill="#FFFDFA"/>
<g style="mix-blend-mode:multiply" opacity="0.2">
<circle cx="125.5" cy="72.5" r="42.0815" stroke="#191326" stroke-width="2.83696"/>
</g>
<defs>
<linearGradient id="paint0_linear" x1="124.757" y1="87.7742" x2="111.381" y2="138.886" gradientUnits="userSpaceOnUse">
<stop stop-color="#404042"/>
<stop offset="1" stop-color="#48484B"/>
</linearGradient>
<linearGradient id="paint1_linear" x1="65.5673" y1="105.096" x2="60.7353" y2="123.129" gradientUnits="userSpaceOnUse">
<stop stop-color="#404042"/>
<stop offset="1" stop-color="#48484B"/>
</linearGradient>
<linearGradient id="paint2_linear" x1="92.4948" y1="80.1687" x2="108.09" y2="164.62" gradientUnits="userSpaceOnUse">
<stop stop-color="#404042"/>
<stop offset="1" stop-color="#48484B"/>
</linearGradient>
</defs>
</svg>

<svg xmlns="http://www.w3.org/2000/svg" width="186" height="171" fill="none"  xmlns:v="https://vecta.io/nano"><g fill="#606063"><path d="M67.045 119.028c-3.178 12.144 15 27.421 40.602 34.121s48.934 2.287 52.112-9.858-15-27.421-40.602-34.122-48.934-2.286-52.112 9.859z"/><path d="M155.924 149.273l15.422-16.285-109.354-28.619 5.721 21.818 88.211 23.086z"/><path d="M68.934 108.293L27.073 97.338c-1.815-.475-3.66.654-4.063 2.486l-.468 2.129a8.26 8.26 0 0 0 5.746 9.7l41.812 12.239-1.166-15.599z"/></g><path d="M62.203 98.71c-3.694 14.114 18.324 32.101 49.178 40.176s58.86 3.178 62.554-10.936-18.324-32.101-49.178-40.176-58.861-3.179-62.554 10.935z" fill="url(#A)"/><g fill-rule="evenodd"><path d="M146.673 123.286c7.098 5.22 11.246 10.866 11.865 15.871l2.978-.368c-.772-6.238-5.737-12.531-13.066-17.92-7.389-5.435-17.439-10.148-28.913-13.151s-22.544-3.817-31.649-2.699c-9.029 1.109-16.44 4.163-20.168 9.223l2.415 1.779c2.992-4.06 9.373-6.95 18.119-8.024 8.67-1.064 19.354-.299 30.523 2.624s20.859 7.49 27.896 12.665z" fill="#606063"/><path d="M75.734 118.739c-8.721-7.124-11.998-14.041-10.629-19.27s7.614-9.654 18.706-11.593c10.807-1.889 25.078-1.154 40.186 2.8s27.911 10.304 36.406 17.245c8.721 7.124 11.998 14.041 10.63 19.27s-7.614 9.653-18.707 11.593c-10.806 1.889-25.078 1.153-40.186-2.8s-27.91-10.304-36.406-17.245zm35.647 20.147c-30.854-8.075-52.872-26.062-49.178-40.176s31.7-19.01 62.554-10.935 52.872 26.062 49.178 40.176-31.7 19.01-62.554 10.936z" fill="#979797"/><path d="M64.167 124.049l-4.937-19.123 2.905-.75 4.937 19.123-2.905.75z" fill="url(#B)"/><path d="M62.469 106.189l-.128-.443-.202-.817-.142-.54c.022-.012.03-.019.028-.027l-.004-.025-.12-.794-.022-.191c-.072-.663-.096-1.321-.071-1.974.035-.903.166-1.793.395-2.668 3.694-14.114 31.7-19.01 62.555-10.936s52.872 26.062 49.178 40.176a12.4 12.4 0 0 1-.963 2.519 13.7 13.7 0 0 1-1.635 2.476l-.016.019c.011.02.014.025.015.029l-.611.651-12.932 13.655c-6.807 9.031-27.596 11.752-50.146 5.85-22.302-5.837-38.971-18.182-40.797-29.295-.093-.569-.484-1.054-1.037-1.215L29.127 111.91a8.26 8.26 0 0 1-5.762-9.635l.459-2.172c.39-1.845 2.242-2.99 4.066-2.514l34.249 8.931a.27.27 0 0 0 .331-.331zm-3.657-3.636c-.064-1.544.091-3.085.488-4.603 2.325-8.885 11.93-13.965 23.478-15.984 11.834-2.069 26.992-1.215 42.738 2.906s29.38 10.802 38.683 18.402c9.078 7.417 14.963 16.551 12.638 25.436-.557 2.129-1.552 4.064-2.901 5.789a3.08 3.08 0 0 1-.425.566l-13.429 14.181c-4.171 5.406-12.026 8.46-21.098 9.556-9.3 1.124-20.517.28-32.096-2.751-11.453-2.997-21.548-7.685-29.079-13.141-7.079-5.13-12.321-11.262-13.743-17.657l-35.782-10.464a11.26 11.26 0 0 1-7.855-13.134l.459-2.173c.744-3.519 4.277-5.704 7.758-4.796l30.165 7.867z" fill="url(#C)"/></g><circle cx="76" cy="29" r="29" fill="#f0b90b"/><path d="M65.185 29l-4.437 4.468L56.28 29l4.468-4.468L65.185 29zM76 18.185l7.642 7.642 4.468-4.468-7.641-7.611L76 9.28 63.921 21.358l4.468 4.468L76 18.185zm15.252 6.347L86.815 29l4.468 4.468L95.72 29l-4.468-4.468zM76 39.815l-7.641-7.642-4.437 4.468L76 48.72l12.109-12.109-4.468-4.437L76 39.815zm0-6.347L80.468 29 76 24.532 71.532 29 76 33.468z" fill="#fffdfa"/><circle cx="76" cy="29" r="27.5" stroke="#191326" stroke-width="3" style="mix-blend-mode:multiply" opacity=".1"/><path d="M125.5 116c24.024 0 43.5-19.476 43.5-43.5S149.524 29 125.5 29 82 48.476 82 72.5s19.476 43.5 43.5 43.5z" fill="#24a980"/><path d="M130.9 76.836l-5.315.14c-2.798 0-4.686-.07-5.386-.14-10.56-.42-18.533-2.308-18.533-4.476 0-2.238 7.903-4.056 18.533-4.546v7.203c.7.07 2.658.14 5.455.14 3.287 0 4.966-.14 5.246-.14v-7.203c10.63.49 18.533 2.308 18.533 4.546 0 2.168-7.903 4.056-18.533 4.476zm0-9.791v-6.434h14.826V50.75h-40.283v9.861h14.826v6.434c-12.029.559-21.05 2.937-21.05 5.805s9.021 5.245 21.05 5.805v20.701h10.701V78.654c12.028-.559 21.05-2.937 21.05-5.805-.07-2.867-9.091-5.245-21.12-5.805z" fill="#fffdfa"/><circle cx="125.5" cy="72.5" r="42.082" stroke="#191326" stroke-width="2.837" style="mix-blend-mode:multiply" opacity=".2"/><defs><linearGradient id="A" x1="124.757" y1="87.774" x2="111.381" y2="138.886" gradientUnits="userSpaceOnUse"><stop stop-color="#404042"/><stop offset="1" stop-color="#48484b"/></linearGradient><linearGradient id="B" x1="65.567" y1="105.096" x2="60.735" y2="123.129" gradientUnits="userSpaceOnUse"><stop stop-color="#404042"/><stop offset="1" stop-color="#48484b"/></linearGradient><linearGradient id="C" x1="92.495" y1="80.169" x2="108.09" y2="164.62" gradientUnits="userSpaceOnUse"><stop stop-color="#404042"/><stop offset="1" stop-color="#48484b"/></linearGradient></defs></svg>
